X:1
T:Title
%%score { ( 1 3 ) | ( 2 4 ) }
L:1/8
Q:1/4=208
M:4/2
K:Eb
V:1 treble nm="Grand Piano"
V:3 treble 
V:2 bass 
V:4 bass 
V:1
 [Ge]4 [Ad]2 [Dc]2 [EB]4 [Gc]4 | A4 G4 z8 | B4 [=Ec]4 A4 G4 | z8 d8 | %4
w: P.~J.~Simpson * * * *||||
 [EGe]4 [_Gd]2 [DGc]2 [D=GB]4 [CGc]4 | .[CFA]4 [EG]4 [EF]4 [B,DF]4 | [B,EB]4 [EGc]4 .[CFA]4 [EG]4 | %7
w: |||
 [EF]4 .[B,DF]4 [G,E]8 |] %8
w: |
V:2
 [E,B,]4 [F,B,]2 [A,B,]2 [G,B,]4 [E,E]4 | .[F,CF]4 .[G,E]4 [B,E]4 [A,B,D]4 | %2
 [G,B,E]4 [C,G,]4[K:treble] [F,A,F]4 [G,B,E]4 | [A,CE]4 [=A,CF]4 [B,F]4[K:bass] B,,4 | %4
 C,4 [D,=A,]2 D,2 G,4 =E,4 | z2 D2 G,2 A,2 B,4 A,4 | G,4 C,4 z2 D2 G,2 A,2 | B,4 z2 A,2 E,8 |] %8
V:3
 x16 | z2 D2 z2 A,2 F4 F4 | x16 | F4 e4 z4 [FA]4 | x16 | x16 | x16 | x16 |] %8
V:4
 x16 | x16 | x8[K:treble] x8 | x12[K:bass] x4 | x16 | F,4 z4 z8 | z8 F,4 z4 | z4 B,,4 z8 |] %8

